assets/Dog face/Flat/dog_face_flat.svg

<svg width="32" height="32" viewBox="0 0 32 32" fill="none" xmlns="http://www.w3.org/2000/svg">
<path d="M4 9C4 6.79086 5.79086 5 8 5H24C26.2091 5 28 6.79086 28 9V23C28 25.2091 26.2091 27 24 27H8C5.79086 27 4 25.2091 4 23V9Z" fill="#F3C07B"/>
<path d="M24.0625 21.8438C24.0625 17.3688 19.75 15.9688 16.0625 15.9688C11.9375 15.9688 8 17.5312 8 21.8438C8 25.7937 12.3125 29.1875 16.0625 29.1875C20.5625 29.1875 24.0625 24.5312 24.0625 21.8438Z" fill="#FFDEA7"/>
<path d="M12.9922 24.6562L16 22.4062L19.0078 24.6562V27C19.0078 28.6569 17.6569 30 16 30C14.3431 30 12.9922 28.6569 12.9922 27V24.6562Z" fill="#CA0B4A"/>
<path d="M11.7259 6.06679L4.42592 16.3617C3.72124 17.3555 2.15625 16.8569 2.15625 15.6387V8.59375C2.15625 6.10847 4.17097 4.09375 6.65625 4.09375H10.7063C11.721 4.09375 12.3129 5.23902 11.7259 6.06679Z" fill="#6D4534"/>
<path d="M20.2428 6.06679L27.5428 16.3617C28.2475 17.3555 29.8125 16.8569 29.8125 15.6387V8.59375C29.8125 6.10847 27.7978 4.09375 25.3125 4.09375H21.2625C20.2477 4.09375 19.6559 5.23902 20.2428 6.06679Z" fill="#6D4534"/>
<path d="M12 13C12 12.4477 12.4477 12 13 12C13.5523 12 14 12.4477 14 13V14C14 14.5523 13.5523 15 13 15C12.4477 15 12 14.5523 12 14V13Z" fill="#212121"/>
<path d="M18 13C18 12.4477 18.4477 12 19 12C19.5523 12 20 12.4477 20 13V14C20 14.5523 19.5523 15 19 15C18.4477 15 18 14.5523 18 14V13Z" fill="#212121"/>
<path d="M17.1446 17H14.8277C14.2439 17 13.7008 17.816 14.19 18.4728C14.5223 18.9188 15.3557 19.8109 16.031 19.8109C16.7064 19.8109 17.4978 18.9188 17.8092 18.4728C18.348 17.6286 17.6236 17.012 17.1446 17Z" fill="#212121"/>
<path d="M16.5 20.5156C16.5 20.2395 16.2761 20.0156 16 20.0156L15.9943 20.0157L15.9886 20.0156C15.7124 20.0156 15.4886 20.2395 15.4886 20.5156C15.4886 20.5981 15.4903 20.6795 15.4937 20.7596C15.3779 22.9801 13.6875 23.9844 12.5312 23.9844C12.2551 23.9844 12.0312 24.2082 12.0312 24.4844C12.0312 24.7605 12.2551 24.9844 12.5312 24.9844C13.7421 24.9844 15.2302 24.2385 15.9943 22.7417C16.7584 24.2385 18.2465 24.9844 19.4573 24.9844C19.7335 24.9844 19.9573 24.7605 19.9573 24.4844C19.9573 24.2082 19.7335 23.9844 19.4573 23.9844C18.3011 23.9844 16.6107 22.9801 16.4949 20.7596C16.4983 20.6795 16.5 20.5981 16.5 20.5156Z" fill="#212121"/>
</svg>

<svg xmlns="http://www.w3.org/2000/svg" width="32" height="32" fill="none"><path fill="#F3C07B" d="M4 9a4 4 0 0 1 4-4h16a4 4 0 0 1 4 4v14a4 4 0 0 1-4 4H8a4 4 0 0 1-4-4V9Z"/><path fill="#FFDEA7" d="M24.063 21.844c0-4.475-4.313-5.875-8-5.875C11.938 15.969 8 17.53 8 21.844c0 3.95 4.313 7.343 8.063 7.343 4.5 0 8-4.656 8-7.343Z"/><path fill="#CA0B4A" d="M12.992 24.656 16 22.406l3.008 2.25V27c0 1.657-1.351 3-3.008 3a3.007 3.007 0 0 1-3.008-3v-2.344Z"/><path fill="#6D4534" d="m11.726 6.067-7.3 10.295c-.705.994-2.27.495-2.27-.723V8.594a4.5 4.5 0 0 1 4.5-4.5h4.05a1.25 1.25 0 0 1 1.02 1.973ZM20.243 6.067l7.3 10.295c.704.994 2.27.495 2.27-.723V8.594a4.5 4.5 0 0 0-4.5-4.5h-4.05a1.25 1.25 0 0 0-1.02 1.973Z"/><path fill="#212121" d="M12 13a1 1 0 1 1 2 0v1a1 1 0 1 1-2 0v-1ZM18 13a1 1 0 1 1 2 0v1a1 1 0 1 1-2 0v-1ZM17.145 17h-2.317c-.584 0-1.127.816-.638 1.473.332.446 1.166 1.338 1.841 1.338s1.467-.892 1.778-1.338c.539-.844-.185-1.461-.664-1.473ZM16.5 20.516a.5.5 0 0 0-.5-.5h-.011a.5.5 0 0 0-.5.5c0 .082.001.164.005.244-.116 2.22-1.806 3.224-2.963 3.224a.5.5 0 1 0 0 1c1.211 0 2.7-.746 3.463-2.242.764 1.496 2.253 2.242 3.463 2.242a.5.5 0 1 0 0-1c-1.156 0-2.846-1.004-2.962-3.224.003-.08.005-.162.005-.244Z"/></svg>
